X:105
T: Regan's
M: 4/4
L: 1/8
S: Luke O'Malley vol 1
Z: B.Black
R: reel
K: G
GEDE GFGA | (3Bcd gd BGG2 | AGEG A^GAB |\
^ceag fdd2 |
GEDE GFGA | (3Bcd gd BGG2 | Bdd2 (3Bcd ge |\
(3ded cA BGG2 :|
gede gfga | bgaf ge d2 | ageg a^gab |\
c'abg ag e2 |
gede gfga | bgaf ge d2 | Bdd2 (3Bcd ge |\
(3ded cA BGG2 :|
